X:1
T:James Gibb editions
T:Psalm 144 (Becker) - Schütz
%%score [ ( 1 2 ) ( 3 4 ) ]
L:1/8
Q:1/4=98
M:2/2
K:F
V:1 treble nm="Soprano Alto"
V:2 treble 
V:3 bass nm="Tenor Bass"
V:4 bass 
V:1
"^Cornelius Becker\n(1561-1604)""^Psalm 144, SWV 249""^Heinrich Schütz\n(1585-1672)" c4 B4 | %1
w: ~Ge- lo-|
w: durch ihn|
 A2 G4 G2 | A2 =B2 c4 | d4 c4 | !courtesy!_B2 c4 d2 | (B2 c2 A4) | G4 :|[M:2/2] G4 | (A3 B c2) B2 | %9
w: bet sei der|Herr, mein Hort,|der mei-|ne Händ lehrt|strei\- * *|ten,|Mein|Burg * * und|
w: ich führ mein|Krie- ge fort,|er steht|mir stets zur|Sei\- * *|ten:|||
 G4 ^F4 | (d3 c B2) c2 | B2 A2 G4 | (G3 A =B2) c2 | d2 =B2 c4 | G4 F4 | A2 (D4 E2 | F2) G2 A4 | %17
w: fest Schloß,|mein * * Schutz|und mein Trost,|mein * * Fried-|schild, für- wahr,|er ists,|der im\- *|* mer- dar|
w: ||||||||
 c4 A4 | B2 G4 c2 | (B2 A2 G4) | F8 |] %21
w: mein Volk|un- ter mich|zwin\- * *|get.|
w: ||||
V:2
 F4 D4 | F2 E4 E2 | D2 D2 E4 | F4 F4 | D2 F4 F2 | (D2 G2 F4) | E4 :|[M:2/2] E4 | F6 D2- | %9
 D2 C2 D4 | (D3 E/F/ G2) G2 | G2 ^F2 G4 | D4 G4 | A2 G2 E4 | E4 D4 | E2 (A,4 C2 | D2) D2 ^C4 | %17
 E4 D4 | D2 C4 C2 | (DE F4 E2) | F8 |] %21
V:3
 A,4 B,4 | C2 C4 C2 | A,2 G,2 G,4 | B,4 A,4 | G,2 A,4 A,2 | (G,4 C4) | C4 :|[M:2/2] C4 | %8
w: ||||||||
 (C3 B, A,2) G,2 | G,4 A,4 | (B,3 C D2) _E2 | D2 D2 D4 | (=B,3 C D2) E2 | %13
w: |||||
"^2. Was ist der Mensch auf dieser Erd, \ndaß du dich sein annimmest?\nDu achtest in dein'm Herzen wert \ndes armen Menschenkindes.\nWir elenden Leut \nsind nur Eitelkeit, \neh man sich wendt um,\nist unsre Zeit dahin, \nverschwindt gleich wie ein Schatten.\n" F2 D2 C4 | %14
w: |
 C4 A,4 | C2 (F,4 G,2 | B,2) G,2 E,4 | %17
w: |||
"^\n5. Ein neues Lied ich singen will \ndir, meinem Gott, mit Freuden,\nes soll drein klingen Psalterspiel, \nlieblich von zehn Saiten.\nDu führst selbst den Krieg, \ngibst dem König Sieg,\nhilfst David, deinem Knecht, \nvor groß G'walt und Unrecht\nund vor dem Schwert des Bösen." A,4 F,4 | %18
w: |
 F,2 E,4 (F,2- | F,2 C2) C4 | C8 |] %21
w: * * mich|* * zwin-|get.|
V:4
 F,4 G,4 | F,2 C,4 E,2 | F,2 G,2 C,4 | B,,4 F,4 | G,2 F,4 D,2 | (G,2 E,2 F,4) | C,4 :|[M:2/2] C,4 | %8
 F,6 G,2 | _E,4 D,4 | G,6 C,2 | G,2 D,2 G,4 | G,6 C,2 | F,2 G,2 C,4 | C,4 D,4 | A,,2 (D,4 C,2 | %16
 B,,2) B,,2 A,,4 | A,,4 D,4 | B,,2 C,4 A,,2 | (B,,2 F,,2 C,4) | F,,8 |] %21

